X: 22326
T: La Toque Bleu
R: reel
M: 4/4
K: Fmajor
f2cf fagf|eceg bgge|f2cf fagf|edcB AFF2:|
|:AFcF dFGA|BGdG BGGd|AFcF AFGA|BdcB AFF2:|

